X: 6023
T: Caoineadh Na dTri Muire
R: waltz
M: 3/4
K: Gmajor
|:G>(E|D4)EG|"v"A4GA|"t"B4~AG|E<("v"G G4)|"t"c4 A<(d|d4)~e2|d2"t"B>G("t"A2|"v"A4)GA|
B<(d d2) ~e2|d4 B~A|G4 ~ED|E<("v"G G4)|"t"B4 ~A2|G4 ~E2|D2 E<G ~A2|~"v"G4:|
"variant 4th measure"|E<(D D4)|

